X:1
T:Title
%%score ( 1 2 ) ( 3 4 )
L:1/8
Q:1/4=145
M:3/4
K:Ab
V:1 treble nm="Grand Piano, Soprano"
V:2 treble 
V:3 bass nm="Choir Pad, Thy Boundless Love"
V:4 bass 
V:1
 [CE]2 [Ec]4 | [Fd]2 [Ec]4 | [EA]2 B2 A2 | [DF]2 [CE]4 | [CE]2 [DF]4 | [DA]2 E4 | [CA]2 [EB]4- | %7
w: By~Charles~Hutchinson~Gabriel *|||||||
 [EB]6 | E2 [Ec]4 | [Fd]2 [Ec]4 | [EA]2 B2 A2 | [DF]2 [FA]4 | [DF]2 E2 A2 | [FB]2 [Ec]4 | %14
w: |||||||
 [DB]2 [CA]4- | [CA]6 | [CE]2 c4- | [Ec-]2 c2 e2 | [EA]2 [EA]4 | [EG]2 [Ed]4 | E2 d4- | %21
w: |||||||
 [Gd-]2 d2 e2 | [EB]2 [DB]4 | [CA]2 [Ec]4 | [Ec]2 [Ee]4 | [Ee]2 c2 B2 | [_Gc]2 [Fd]4 | %27
w: ||||||
 [Fd]2 [FA]4 | [=EB]2 c2 d2 | [Ec]2 [Ec]4 | [DB]2 A4- | [DA-]2 [CA]4- | [CA]6 |] %33
w: ||||||
V:2
 x6 | x6 | z2 D4 | x6 | x6 | x6 | x6 | x6 | x6 | x6 | z2 D4 | x6 | x6 | x6 | x6 | x6 | z2 E4 | %17
 z2 E4 | x6 | x6 | z2 G4 | z2 G4 | x6 | x6 | x6 | z2 E4 | x6 | x6 | z2 _E4 | x6 | z2 C4 | x6 | %32
 x6 |] %33
V:3
 [A,,A,]2 [A,,A,]4 | [A,,A,]2 [A,,A,]4 | [C,A,]2 [D,F,]4 | [D,A,]2 [A,,A,]4 | [A,,A,]2 [D,A,]4 | %5
 [D,F,]2 [C,A,]4 | [A,,A,]2 [E,G,]4- | [E,G,]6 | [E,G,]2 [A,,A,]4 | [A,,A,]2 [A,,A,]4 | %10
 [C,A,]2 [D,F,]4 | [D,A,]2 [D,D]4 | [D,A,]2 [C,A,]4 | [D,A,]2 [E,A,]4 | [E,G,]2 [A,,A,]4- | %15
 [A,,A,]6 | [A,,A,]2 A,4 | A,2 A,2 C2 | [A,C]2 [E,C]4 | [E,B,]2 [E,B,]4 | [E,G,]2 [E,B,]4 | %21
 [E,B,]2 [E,B,]4 | [E,G,]2 A,4 | A,2 A,4 | A,2 [A,C]4 | [A,C]2 A,4 | A,2 [D,A,]4 | [D,A,]2 [D,D]4 | %28
 z2 A,2 z2 | [E,A,]2 [E,A,]4 | [E,G,]2 [A,,A,]4 | [A,,F,]2 [A,,E,]4- | [A,,E,]6 |] %33
V:4
 x6 | x6 | x6 | x6 | x6 | x6 | x6 | x6 | x6 | x6 | x6 | x6 | x6 | x6 | x6 | x6 | x6 | x6 | x6 | %19
 x6 | x6 | x6 | x6 | x6 | x6 | x6 | x6 | x6 | [D,A,]2 E,2- [E,B,]2 | x6 | x6 | x6 | x6 |] %33

